src/22x22/places/folder-gruvbox-original-aqua-syncthing.svg

<svg xmlns="http://www.w3.org/2000/svg" width="22" height="22" version="1">
 <rect style="opacity:0.2" width="20" height="12" x="1" y="8.5" rx="1" ry="1"/>
 <path style="fill:#427b58" d="m 1,16 c 0,0.554 0.446,1 1,1 h 18 c 0.554,0 1,-0.446 1,-1 V 5 C 21,4.446 20.554,4 20,4 H 11 C 9.5,4 9,2 7.5,2 H 2 C 1.446,2 1,2.446 1,3"/>
 <path style="opacity:0.1;fill:#D5D7B3" d="M 2,2 C 1.446,2 1,2.446 1,3 v 0.5 c 0,-0.554 0.446,-1 1,-1 h 5.5 c 1.5,0 2,2 3.5,2 h 9 c 0.554,0 1,0.446 1,1 V 5 C 21,4.446 20.554,4 20,4 H 11 C 9.5,4 9,2 7.5,2 Z"/>
 <rect style="opacity:0.2" width="20" height="12" x="1" y="7.5" rx="1" ry="1"/>
 <rect style="fill:#D5D7B3" width="16" height="8" x="3" y="6" rx="1" ry="1"/>
 <rect style="fill:#8ec07c" width="20" height="12" x="1" y="8" rx="1" ry="1"/>
 <path style="fill:#313D38" d="m 11,10 c -2.209139,0 -4,1.790861 -4,4 0,2.209139 1.790861,4 4,4 2.209139,0 4,-1.790861 4,-4 0,-2.209139 -1.790861,-4 -4,-4 z m 0,0.5 c 1.932997,0 3.5,1.567003 3.5,3.5 0,1.932997 -1.567003,3.5 -3.5,3.5 -1.932997,0 -3.5,-1.567003 -3.5,-3.5 0,-1.932997 1.567003,-3.5 3.5,-3.5 z"/>
 <path fill="none" stroke-width="1.143" style="stroke:#313D38;stroke-width:0.5" d="M 7.5,15 12,14 14.5,12.5"/>
 <path fill="none" stroke-width="1.143" style="stroke:#313D38;stroke-width:0.5" d="M 14,16.5 12,14"/>
 <circle style="fill:#313D38" cx="14" cy="17" r="1"/>
 <circle style="fill:#313D38" cx="15" cy="12" r="1"/>
 <circle style="fill:#313D38" cx="12" cy="14" r="1"/>
 <circle style="fill:#313D38" cx="7" cy="15" r="1"/>
</svg>

<?xml version="1.0" encoding="UTF-8"?>
<svg width="22" height="22" version="1" xmlns="http://www.w3.org/2000/svg">
 <rect x="1" y="8.5" width="20" height="12" rx="1" ry="1" opacity=".2"/>
 <path d="m1 16c0 0.554 0.446 1 1 1h18c0.554 0 1-0.446 1-1v-11c0-0.554-0.446-1-1-1h-9c-1.5 0-2-2-3.5-2h-5.5c-0.554 0-1 0.446-1 1" fill="#427b58"/>
 <path d="m2 2c-0.554 0-1 0.446-1 1v0.5c0-0.554 0.446-1 1-1h5.5c1.5 0 2 2 3.5 2h9c0.554 0 1 0.446 1 1v-0.5c0-0.554-0.446-1-1-1h-9c-1.5 0-2-2-3.5-2z" fill="#D5D7B3" opacity=".1"/>
 <rect x="1" y="7.5" width="20" height="12" rx="1" ry="1" opacity=".2"/>
 <rect x="3" y="6" width="16" height="8" rx="1" ry="1" fill="#D5D7B3"/>
 <rect x="1" y="8" width="20" height="12" rx="1" ry="1" fill="#8ec07c"/>
 <path d="m11 10c-2.2091 0-4 1.7909-4 4s1.7909 4 4 4 4-1.7909 4-4-1.7909-4-4-4zm0 0.5c1.933 0 3.5 1.567 3.5 3.5s-1.567 3.5-3.5 3.5-3.5-1.567-3.5-3.5 1.567-3.5 3.5-3.5z" fill="#313D38"/>
 <path d="m7.5 15 4.5-1 2.5-1.5" fill="none" stroke="#313D38" stroke-width=".5"/>
 <path d="m14 16.5-2-2.5" fill="none" stroke="#313D38" stroke-width=".5"/>
 <circle cx="14" cy="17" r="1" fill="#313D38"/>
 <circle cx="15" cy="12" r="1" fill="#313D38"/>
 <circle cx="12" cy="14" r="1" fill="#313D38"/>
 <circle cx="7" cy="15" r="1" fill="#313D38"/>
</svg>
